resources/icons/16px/waves.svg

<svg width="16" height="16" viewBox="0 0 16 16" fill="none" xmlns="http://www.w3.org/2000/svg">
<path fill-rule="evenodd" clip-rule="evenodd" d="M3 1C3.37877 1 3.72504 1.214 3.89443 1.55279C3.99568 1.75529 4.28714 2.15957 4.67267 2.51006C5.09176 2.89105 5.39226 3 5.5 3C5.60774 3 5.90824 2.89105 6.32733 2.51006C6.71286 2.15957 7.00432 1.75529 7.10557 1.55279C7.27496 1.214 7.62123 1 8 1C8.37877 1 8.72503 1.214 8.89443 1.55279C8.99568 1.75529 9.28714 2.15957 9.67267 2.51006C10.0918 2.89105 10.3923 3 10.5 3C10.6077 3 10.9082 2.89105 11.3273 2.51006C11.7129 2.15957 12.0043 1.75529 12.1056 1.55279C12.275 1.214 12.6212 1 13 1C13.3788 1 13.725 1.214 13.8944 1.55279C14.0667 1.89729 14.2735 2.30364 14.5309 2.6253C14.8085 2.97238 14.9678 3 15 3C15.5523 3 16 3.44772 16 4C16 4.55228 15.5523 5 15 5C14.0322 5 13.3581 4.36095 12.9691 3.8747C12.9436 3.84283 12.9186 3.81064 12.894 3.77822C12.822 3.8506 12.7481 3.92141 12.6727 3.98994C12.1751 4.44228 11.3923 5 10.5 5C9.60774 5 8.82491 4.44228 8.32733 3.98994C8.21445 3.88732 8.10485 3.7796 8 3.66914C7.89515 3.7796 7.78555 3.88732 7.67267 3.98994C7.17509 4.44228 6.39226 5 5.5 5C4.60774 5 3.82491 4.44228 3.32733 3.98994C3.25194 3.92141 3.17802 3.8506 3.106 3.77822C3.08141 3.81064 3.05636 3.84283 3.03087 3.8747C2.64186 4.36095 1.96782 5 1 5C0.447715 5 0 4.55228 0 4C0 3.44772 0.447715 3 1 3C1.03218 3 1.19147 2.97238 1.46913 2.6253C1.72646 2.30364 1.93332 1.89729 2.10557 1.55279C2.27496 1.214 2.62123 1 3 1ZM3 6C3.37877 6 3.72504 6.214 3.89443 6.55279C3.99568 6.75529 4.28714 7.15957 4.67267 7.51006C5.09176 7.89105 5.39226 8 5.5 8C5.60774 8 5.90824 7.89105 6.32733 7.51006C6.71286 7.15957 7.00432 6.75529 7.10557 6.55279C7.27496 6.214 7.62123 6 8 6C8.37877 6 8.72503 6.214 8.89443 6.55279C8.99568 6.75529 9.28714 7.15957 9.67267 7.51006C10.0918 7.89105 10.3923 8 10.5 8C10.6077 8 10.9082 7.89105 11.3273 7.51006C11.7129 7.15957 12.0043 6.75529 12.1056 6.55279C12.275 6.214 12.6212 6 13 6C13.3788 6 13.725 6.214 13.8944 6.55279C14.0667 6.89729 14.2735 7.30364 14.5309 7.62531C14.8085 7.97238 14.9678 8 15 8C15.5523 8 16 8.44772 16 9C16 9.55228 15.5523 10 15 10C14.0322 10 13.3581 9.36095 12.9691 8.87469C12.9436 8.84283 12.9186 8.81064 12.894 8.77822C12.822 8.8506 12.7481 8.92141 12.6727 8.98994C12.1751 9.44228 11.3923 10 10.5 10C9.60774 10 8.82491 9.44228 8.32733 8.98994C8.21445 8.88732 8.10485 8.7796 8 8.66914C7.89515 8.7796 7.78555 8.88732 7.67267 8.98994C7.17509 9.44228 6.39226 10 5.5 10C4.60774 10 3.82491 9.44228 3.32733 8.98994C3.25194 8.92141 3.17802 8.8506 3.106 8.77822C3.08141 8.81064 3.05636 8.84283 3.03087 8.87469C2.64186 9.36095 1.96782 10 1 10C0.447715 10 0 9.55228 0 9C0 8.44772 0.447715 8 1 8C1.03218 8 1.19147 7.97238 1.46913 7.62531C1.72646 7.30364 1.93332 6.89729 2.10557 6.55279C2.27496 6.214 2.62123 6 3 6ZM3.89443 11.5528C3.72504 11.214 3.37877 11 3 11C2.62123 11 2.27496 11.214 2.10557 11.5528C1.93332 11.8973 1.72646 12.3036 1.46913 12.6253C1.19147 12.9724 1.03218 13 1 13C0.447715 13 0 13.4477 0 14C0 14.5523 0.447715 15 1 15C1.96782 15 2.64186 14.361 3.03087 13.8747C3.05636 13.8428 3.08141 13.8106 3.106 13.7782C3.17802 13.8506 3.25194 13.9214 3.32733 13.9899C3.82491 14.4423 4.60774 15 5.5 15C6.39226 15 7.17509 14.4423 7.67267 13.9899C7.78555 13.8873 7.89515 13.7796 8 13.6691C8.10485 13.7796 8.21445 13.8873 8.32733 13.9899C8.82491 14.4423 9.60774 15 10.5 15C11.3923 15 12.1751 14.4423 12.6727 13.9899C12.7481 13.9214 12.822 13.8506 12.894 13.7782C12.9186 13.8106 12.9436 13.8428 12.9691 13.8747C13.3581 14.361 14.0322 15 15 15C15.5523 15 16 14.5523 16 14C16 13.4477 15.5523 13 15 13C14.9678 13 14.8085 12.9724 14.5309 12.6253C14.2735 12.3036 14.0667 11.8973 13.8944 11.5528C13.725 11.214 13.3788 11 13 11C12.6212 11 12.275 11.214 12.1056 11.5528C12.0043 11.7553 11.7129 12.1596 11.3273 12.5101C10.9082 12.891 10.6077 13 10.5 13C10.3923 13 10.0918 12.891 9.67267 12.5101C9.28714 12.1596 8.99568 11.7553 8.89443 11.5528C8.72503 11.214 8.37877 11 8 11C7.62123 11 7.27496 11.214 7.10557 11.5528C7.00432 11.7553 6.71286 12.1596 6.32733 12.5101C5.90824 12.891 5.60774 13 5.5 13C5.39226 13 5.09176 12.891 4.67267 12.5101C4.28714 12.1596 3.99568 11.7553 3.89443 11.5528Z" fill="#5C7080"/>
</svg>

<svg xmlns="http://www.w3.org/2000/svg" viewBox="0 0 16 16">
  <path d="M3 1a1 1 0 0 1 .894.553c.102.202.393.607.779.957.419.381.72.49.827.49.108 0 .408-.109.827-.49.386-.35.677-.755.779-.957a1 1 0 0 1 1.788 0c.102.202.393.607.779.957.419.381.72.49.827.49.108 0 .408-.109.827-.49.386-.35.677-.755.779-.957a1 1 0 0 1 1.788 0c.173.344.38.75.637 1.072.277.347.437.375.469.375a1 1 0 1 1 0 2c-.968 0-1.642-.64-2.03-1.125l-.076-.097a6 6 0 0 1-.221.212C12.175 4.442 11.393 5 10.5 5c-.892 0-1.675-.558-2.173-1.01A6 6 0 0 1 8 3.67q-.158.165-.327.32C7.175 4.442 6.393 5 5.5 5c-.892 0-1.675-.558-2.173-1.01a6 6 0 0 1-.221-.212l-.075.097C2.64 4.36 1.968 5 1 5a1 1 0 0 1 0-2c.032 0 .191-.028.47-.375.256-.321.463-.728.636-1.072A1 1 0 0 1 3 1m0 5a1 1 0 0 1 .894.553c.102.202.393.607.779.957.419.381.72.49.827.49.108 0 .408-.109.827-.49.386-.35.677-.755.779-.957a1 1 0 0 1 1.788 0c.102.202.393.607.779.957.419.381.72.49.827.49.108 0 .408-.109.827-.49.386-.35.677-.755.779-.957a1 1 0 0 1 1.788 0c.173.344.38.75.637 1.072.277.347.437.375.469.375a1 1 0 1 1 0 2c-.968 0-1.642-.639-2.03-1.125l-.076-.097a6 6 0 0 1-.221.212c-.498.452-1.28 1.01-2.173 1.01-.892 0-1.675-.558-2.173-1.01A6 6 0 0 1 8 8.67q-.158.165-.327.32C7.175 9.442 6.393 10 5.5 10c-.892 0-1.675-.558-2.173-1.01a6 6 0 0 1-.221-.212l-.075.097C2.64 9.36 1.968 10 1 10a1 1 0 0 1 0-2c.032 0 .191-.028.47-.375.256-.321.463-.728.636-1.072A1 1 0 0 1 3 6m.894 5.553a1 1 0 0 0-1.788 0c-.173.344-.38.75-.637 1.072-.278.347-.437.375-.469.375a1 1 0 1 0 0 2c.968 0 1.642-.639 2.03-1.125l.076-.097q.108.109.221.212C3.825 14.442 4.607 15 5.5 15c.892 0 1.675-.558 2.173-1.01q.17-.155.327-.32.158.165.327.32c.498.452 1.28 1.01 2.173 1.01.892 0 1.675-.558 2.173-1.01q.113-.104.221-.212l.075.097C13.36 14.36 14.032 15 15 15a1 1 0 1 0 0-2c-.032 0-.191-.028-.47-.375-.256-.321-.463-.728-.636-1.072a1 1 0 0 0-1.788 0c-.102.202-.393.607-.779.957-.419.381-.72.49-.827.49-.108 0-.408-.109-.827-.49-.386-.35-.677-.755-.779-.957a1 1 0 0 0-1.788 0c-.102.202-.393.607-.779.957-.419.381-.72.49-.827.49-.108 0-.408-.109-.827-.49-.386-.35-.677-.755-.779-.957"/>
</svg>
